!!!OTL: Das Dollerlied
!!!ARE: Europa, Mitteleuropa, Deutschland
!!!SCT: A0374E
!!!YEM: Copyright 1995, estate of Helmut Schaffrath.
**kern
*ICvox
*Ivox
!! Mixed meters:  4/2; 6/2
*M4/2
*k[f#c#]
*D:
{1dd
=1
2dd
2dd
2ccn
2b
=2
*M6/2
1g
1a
2r}
{2b
=3
*M4/2
2ccn
4b
4a
2a
2dd
=4
2ccn
4b
4a
2b
2b
=5
1a}
{1dd
=6
2dd
2dd
2ccn
2b
=7
*M6/2
1g
1a
2r}
{2b
=8
*M4/2
2ccn
4b
4a
2a
2dd
=9
2ccn
4b
4a
2b
2b
=10
1a
2r}
{2a
=11
2a
2g
2a
2b
=12
*M6/2
1ccn
1ccn
2r}
{2b
=13
*M4/2
2a
4g
4fn
2e
2fn
=14
*M6/2
2d
2d
1cn
2r}
{2ccn
=15
*M4/2
2ccn
2a
2ccn
2dd
=16
*M6/2
4ccn
4a
2b
1a
2r}
{2ccn
=17
*M4/2
2.dd
4dd
2ccn
2a
=18
*M6/2
1b
1a
2r}
{2ccn
=19
*M4/2
2b
2a
2g
4fn
4e
=20
2fn
2g
1e
=21
1d}
==
!!!AGN: Romanze, Ballade, Lied, Personenlied
!! J. Ott 1534 No. 20.
!!!ONB: ESAC (Essen Associative Code) Database: ALTDEU
!!!AMT: irregular
!!!AIN: vox
!!!EED: Helmut Schaffrath
!!!EEV: 1.0
*-
